X: 33373
T: Queen Of The Rushes, The
R: jig
M: 6/8
K: Dmajor
AG|:F2D DAF|~G2E EDE|F2D DAF|GED CDE|
F2D DAF|~G2E EDE|FAF GEA|1 DED DAG:|2 DED D2||
d|:cBA Bcd|ecA GEC|~d2e fed|ecA A2B|
cBA Bcd|ecA GEC|~A3 GEA|1 DED D2d:|2 DED D2G||
|:A2A dAF|A2A dAF|GFG EFG|EFG GFE|
A2A dAF|A2A dAG|~F3 GEA|1 DED DFG:|2 DED D2||
|:"variation B-C"FED EFG|~A2G AFD|GFG ~A2G|AFD DCD|
FED EFG|~A2G AFD|FAF GEA|DED D3:|
|:~e3 aec|~e3 aec|dcd Bcd|Bcd dcB|
~e3 aec|~e3 aec|faf gea|ded d3:|

